X: 24064
T: Lonesome, The
R: jig
M: 6/8
K: Dmajor
|:FBd efe|dBA B2 B|ABd egf|edB A2 z|
FBe EBe|Bcd efd|Bcd efd|cBA B2 B:|
|:fga afd|d2 d dcB|ABd egf|fed e2 z|
fga baf|fge fdB|FBd efd|cBA B2 z:|

